X: 48
T: Northern Hospitality Jig
C: Mike Richardson
O: Seattle, Washington
%R: jig
Z: Collected and edited 2014 by John Chambers <jc:trillian.mit.edu>
B: GEMS The Best of the Country Dance and Song Society Diamond Jubilee Music, Dance and Song Contest 1993 p.74 #2
M: 6/8
L: 1/8
K: C
% - - - - - - - - - - - - - - - - - - - - - - - - -
|:\
"C"cGE FED | "C"CEC "G"DB,G, |\
"C"CEG "(Am)"ceg | "Dm"fdc "G"BAB |\
"C"cGE FED | "C"CEC "G"DB,G, |
"C"CEG ceg |[1 "G7"fdB "C"c2G :|\
[2 "G7"fdB "C"c2B \
|: "Am"ABc cBA | "E"^G2E "Am"A2E |\
"Dm"FED DEF | "m"E2C A,2C |
"E7"B,CD DCB, |\
[1 "Am"A,CE ABc | "E"B2^G "B7"^FGF | "E7"E3 E2^G :|\
[2 "Am"A,CE Ace | "F"fed "E7"c2B | "Am"A3 "G7"G2B |]
% - - - - - - - - - - - - - - - - - - - - - - - - -

